X: 20993
T: OLD ENGLISH COUNTRY DANCE
Q: "With spirit."
%R: march, reel
B: W. Hamilton "Universal Tune-Book" Vol. 2 Glasgow 1846 p.99 #2
S: http://s3-eu-west-1.amazonaws.com/itma.dl.printmaterial/book_pdfs/hamiltonvol2web.pdf
Z: 2016 John Chambers <jc:trillian.mit.edu>
M: 2/4
L: 1/8
K: D
% - - - - - - - - - - - - - - - - - - - - - - - - -
a |\
fdec | dBAG | FGAF | FE za |\
fdec dBAG | FdDc | dDD :|\
|: A/G/ |\
FAAd | BGGF | Eeed | cAAg |\
fdec | dBAG | FdEc | dDD :|
% - - - - - - - - - - - - - - - - - - - - - - - - -

%%sep 1 1 500
%%sep 1 1 500

